icon-themes/breeze_svg/cmd/lc_color.svg

<svg viewBox="0 0 24 24" xmlns="http://www.w3.org/2000/svg"><path d="m4 4v2h5v11h2v-11h5v-2zm13.5 5c-.48646 1.7025-1.678195 3.166091-2.203125 4.337891-.1837.3484-.296875.739409-.296875 1.162109 0 1.385 1.115 2.5 2.5 2.5s2.5-1.115 2.5-2.5c0-.4227-.113165-.813709-.296875-1.162109-.52492-1.1718-1.716675-2.635391-2.203125-4.337891zm-13.5 10v1h16v-1z" fill="#4d4d4d"/></svg>

<svg xmlns="http://www.w3.org/2000/svg" viewBox="0 0 24 24">
 <path 
     style="fill:#4d4d4d" 
     d="M 4 4 L 4 6 L 9 6 L 9 17 L 11 17 L 11 6 L 16 6 L 16 4 L 4 4 z M 17.5 9 C 17.01354 10.7025 15.821805 12.166091 15.296875 13.337891 C 15.113175 13.686291 15 14.0773 15 14.5 C 15 15.885 16.115 17 17.5 17 C 18.885 17 20 15.885 20 14.5 C 20 14.0773 19.886835 13.686291 19.703125 13.337891 C 19.178205 12.166091 17.98645 10.7025 17.5 9 z M 4 19 L 4 20 L 20 20 L 20 19 L 4 19 z "
     />
 </svg>
